X:1
T:Yamaha P-45 Vibraphone Demo Piece
T:Yamaha P-45 Vibraphone Demo
%%score { ( 1 3 ) | 2 }
L:1/8
Q:1/4=120
M:4/4
K:Eb
V:1 treble nm="Piano" snm="Pno."
V:3 treble 
V:2 bass 
V:1
"^Andante"!mp! z6!<(! =B,/C/E/F/!<)!"^Swing" | GFAB c2 Bc- | c !>!c7 | z GAB c2 B_d- | %4
 d !>!_d3- d2 =de | fdef d B3 | z4 (3F_GF DE |!>(! F B,2 B,- B, D2 F!>)! | %8
 =B,/A,/=A,/D/ B,/C/F/D/ E/F/_G/A/ =A/=B/c/d/ | e/f/g/_g/ =g4- gf/e/ | d3/2 !>!c6- c/ | %11
 z3 d/c/ f2 e2 | d !>!c2 =B- B !>!A2 F | D!>!E3/2(3GB=B z/ d2 c | z A2 C G G2 F- | F E2 !>!E4- E | %16
 (3=EAc e2 _d2 c2 |!>(! (3g2 e2 c2 A4!>)! |!>(! (3_g2 d2 =B2{/_B=A} _A4!>)! | %19
"^rit. -   -   -   -   -   -   -   -   -   -   -   -   -   -   -   -   -   -   -   -   -   -   -   -   -   -   -   -   -   -   -   -   -   -   -"[Q:1/4=120] z2[Q:1/4=115] e/[Q:1/4=113]"^.8"=e/[Q:1/4=112]"^.5"_g/[Q:1/4=111]"^.3"_e/[Q:1/4=110] =e/[Q:1/4=108]"^.8"g/[Q:1/4=107]"^.5"_e/[Q:1/4=106]"^.3"=B/[Q:1/4=105] A/[Q:1/4=103]"^.8"E/[Q:1/4=102]"^.5"_G/[Q:1/4=101]"^.3"E/ | %20
[Q:1/4=100] =E/_G/A/B/ =B/_d/=d{/_dc} _B2{/=A_A} =GG- | G8 |] %22
V:2
 z8 |!ped! [F,A,]8!ped-up! |!ped! (3B,,2 A,2 D2 G4!ped-up! | !arpeggio![F,A,E]8 | %4
!ped! (3=E,2 A,2 D2 _G4!ped-up! | E,4 [G,B,]4 |!ped! (3A,,2 _G,2 C2- C4!ped-up! | G,,8 | %8
"_cresc." [_G,,E,]8 |!ped! (3F,2 A,2 C2 E4!ped-up! |!ped! (3E,2 A,2 C2 F4!ped-up! | %11
!ped! (3D,2 A,2 C2 F2 A2!ped-up! | .G,,2 .[F,=B,]2 .=B,,2 .[A,D]2 | .C,2 .[G,B,]2 .F,2 .[CE]2 | %14
 .F,,2 .[F,CE]2 .B,,2 .[A,D]2 | E,3 G,3 D,/_D,/!fermata!C, |!ped! (3=E,2 _D2 =E2- E4!ped-up! | %17
!ped! (3F,,2 E,2 A,2 C4!ped-up! |!ped! (3B,,2 F,2 A,2!ped-up! D4 | %19
"_dim."!ped! (3=E,,2 =B,,2 A,2 =B,4- | B,4!ped-up! (3E,,2 B,,2 G,2 | B,2 !fermata![DF]6 |] %22
V:3
 x8 | x8 | x8 | x8 | x8 | x8 | x8 | x8 | x8 | x8 | x8 | x8 | x13/2 .G3/2 | x8 | x8 | x8 | x8 | x8 | %18
 x8 | x8 | x8 | x8 |] %22

